frontend/public/svg/food/candy.svg

<svg width="77" height="161" viewBox="0 0 77 161" fill="none" xmlns="http://www.w3.org/2000/svg">
<g clip-path="url(#clip0)">
<path d="M1.35278 99.5688C1.75183 82.9523 2.12252 66.3344 2.56227 49.7185C2.81299 40.2673 4.86688 31.1442 9.43104 22.8901C15.2252 12.4123 23.5775 4.65705 35.5852 1.69499C39.7619 0.72184 44.1052 0.711004 48.2867 1.66342C53.4486 2.82759 58.3313 4.99498 62.6572 8.04239C68.2706 11.8577 71.2819 17.4064 72.67 23.8602C73.4373 27.5936 74.0017 31.3659 74.3601 35.1604C74.9252 40.629 75.2888 46.1212 75.6964 51.6042C75.7706 52.725 75.7542 53.85 75.6452 54.968C75.2704 59.1377 73.5252 61.1336 69.4415 61.6672C66.3327 62.1433 63.1892 62.3564 60.0444 62.3045C56.4726 62.1634 52.3929 60.6091 51.9716 55.4208C51.5358 50.0513 50.9706 44.6916 50.4429 39.3293C50.3221 38.1026 50.1804 36.8733 49.9474 35.665C49.1244 31.3692 48.2297 30.5043 43.9628 30.436C37.1835 30.3264 32.1724 33.2326 30.7803 40.2561C28.9426 49.5367 28.1338 58.9132 27.5332 68.3219C26.2777 87.9759 27.3764 107.614 27.9271 127.261C28.1634 135.68 28.1655 144.109 28.1242 152.53C28.0993 157.44 25.9904 159.342 21.0823 159.597C17.4981 159.784 13.928 160.194 10.3444 160.436C5.38053 160.77 3.60332 159.517 2.36678 154.764C2.01261 153.469 1.82153 152.135 1.79825 150.793C1.76105 133.721 1.75321 116.647 1.77421 99.5747L1.35278 99.5688ZM8.72666 129.277C8.51532 136.509 8.3196 143.192 8.11679 150.129L18.7082 149.127V134.53L8.72666 129.277ZM17.9811 97.5539V77.2789L9.69482 71.6193C9.59112 78.6723 9.46359 85.0231 9.45637 91.3751C9.5121 91.74 9.64435 92.0899 9.84414 92.401C10.044 92.7114 10.307 92.9766 10.6162 93.1794C12.8543 94.62 15.1877 95.915 17.9811 97.5519V97.5539ZM9.09106 102.254V120.655L18.2342 125.019V108.23L9.09106 102.254ZM42.4518 7.91112C42.7872 12.5501 43.0827 16.6405 43.386 20.8312C45.7015 21.2906 47.8659 21.7776 50.0535 22.117C50.6993 22.1985 51.3522 22.0345 51.8828 21.6575C54.4687 19.5671 56.9799 17.3847 59.7188 15.0626C54.6177 10.9887 49.3066 8.24716 42.4505 7.91112H42.4518ZM36.3887 8.65803C30.1384 10.8239 25.4659 14.0256 21.7038 18.7407L28.3828 25.7682L35.1712 22.0572C35.5545 17.8185 35.9476 13.4966 36.3874 8.65803H36.3887ZM18.5172 67.3348C18.8533 61.8818 19.1546 56.9901 19.446 52.2553L10.7258 47.9484C10.4514 53.0219 10.2007 57.7036 9.94863 62.3373L18.5172 67.3348ZM23.0802 31.9673C21.3435 29.4935 19.5727 26.9712 17.735 24.3537C14.9383 28.1421 12.0629 36.6187 12.2526 40.3112L20.3452 43.4374C21.2864 39.4797 22.139 35.9039 23.0789 31.9639L23.0802 31.9673ZM63.4245 22.0106L56.5428 26.4737L59.09 36.0438L65.4002 33.627C65.3634 29.6155 64.9892 25.9093 63.4232 22.0074L63.4245 22.0106ZM66.8129 52.596C66.5792 48.9914 66.9061 45.6978 65.9181 42.403L59.2371 43.923V53.3415C60.7224 53.2608 61.9282 53.2345 63.1287 53.1189C64.2307 53.0113 65.3246 52.8105 66.8122 52.5926L66.8129 52.596Z" fill="black"/>
</g>
<defs>
<clipPath id="clip0">
<rect width="75.4789" height="160.146" fill="white" transform="translate(0.850098 0.807129)"/>
</clipPath>
</defs>
</svg>

<svg xmlns="http://www.w3.org/2000/svg" width="77" height="161" fill="none" viewBox="0 0 77 161"><g clip-path="url(#a)"><path fill="#000" d="M1.353 99.569c.399-16.617.77-33.235 1.21-49.85.25-9.452 2.304-18.575 6.868-26.829C15.225 12.412 23.578 4.657 35.585 1.695a28.3 28.3 0 0 1 12.702-.032 40.4 40.4 0 0 1 14.37 6.38c5.614 3.815 8.625 9.363 10.013 15.817a105 105 0 0 1 1.69 11.3c.565 5.469.929 10.961 1.336 16.444a21 21 0 0 1-.05 3.364c-.376 4.17-2.12 6.166-6.204 6.7-3.11.475-6.253.688-9.398.636-3.571-.14-7.651-1.695-8.072-6.883-.436-5.37-1.001-10.73-1.53-16.092-.12-1.226-.262-2.456-.495-3.664-.823-4.296-1.717-5.16-5.984-5.229-6.78-.11-11.79 2.797-13.183 9.82-1.837 9.28-2.646 18.657-3.247 28.066-1.255 19.654-.157 39.292.394 58.939.236 8.419.239 16.848.197 25.269-.025 4.91-2.134 6.812-7.042 7.067-3.584.187-7.154.597-10.738.839-4.963.334-6.74-.919-7.977-5.672a16 16 0 0 1-.569-3.971q-.055-25.609-.024-51.218zm7.374 29.708-.61 20.852 10.591-1.002V134.53zm9.254-31.723V77.279l-8.286-5.66c-.104 7.053-.231 13.404-.239 19.756a2.64 2.64 0 0 0 1.16 1.804c2.238 1.441 4.572 2.736 7.365 4.373zm-8.89 4.7v18.401l9.143 4.364V108.23zm33.36-94.343.935 12.92c2.316.46 4.48.947 6.667 1.286a2.6 2.6 0 0 0 1.83-.46c2.586-2.09 5.097-4.272 7.836-6.594-5.101-4.074-10.412-6.816-17.269-7.152zm-6.062.747c-6.25 2.166-10.923 5.368-14.685 10.083l6.679 7.027 6.788-3.71c.383-4.24.777-8.561 1.216-13.4zM18.517 67.335l.929-15.08-8.72-4.307c-.275 5.074-.525 9.756-.777 14.39zm4.563-35.368-5.345-7.613c-2.797 3.788-5.672 12.265-5.482 15.957l8.092 3.126c.941-3.957 1.794-7.533 2.734-11.473zm40.345-9.956-6.882 4.463 2.547 9.57 6.31-2.417c-.037-4.012-.41-7.718-1.977-11.62zm3.388 30.585c-.234-3.605.093-6.898-.895-10.193l-6.68 1.52v9.419c1.484-.081 2.69-.108 3.89-.223 1.103-.108 2.197-.309 3.684-.526z"/></g><defs><clipPath id="a"><path fill="#fff" d="M.85.807h75.48v160.146H.85z"/></clipPath></defs></svg>
